X:794
T:Reel 794
M:4/4
K:Gmaj
L:1/8
D|GBGF GABc|dBcd BcAF|DGGF GABg| (3efg dc BGAF|GFGA BABc|dedc BGAF|GFGA BBdg| (3efg dc BGG|c|BcBA BdBd|cece Aece|BdBA GABc|dgfa g2ga| (3bag af gfeg|cABG FADF|GABc defd| (3efg dc BGG|
